X:1
T:Title
%%score ( 1 2 ) { 3 | 4 }
L:1/8
Q:1/4=100
M:4/4
K:C
V:1 treble nm="Bright Piano"
V:2 treble 
V:3 treble nm="Bright Piano"
V:4 bass 
V:1
 [Ec]2 [EG]2 [FA]2 [FG]2 | [Ec]2 [Gd]2 [Ge]2 [Ec]2 | z2 .c2 z4 | [Gc]2 [FB]2 [Ec]4 | %4
w: Carl~Mebus * * *||||
 [Ec]2 [EG]2 [FA]2 [FG]2 | [Ec]2 [Gd]2 [Ge]2 [Ec]2 | z2 .c2 z4 | [Gc]2 [FB]2 [Ec]4 | %8
w: ||||
 [DG]2 [CE]2 [CA]2 [CG]2 | F2 z2 z4 | [B,D]2 [DG]2 [D^F]2 [Fc]2 | [^FB]2 [FA]2 G4 | %12
w: ||||
 G2 [Gc]2 [Fd]2 [FG]2 | [Ee]2 [Gc]2 [Gd]4 | [Ec]2 [EG]2 [FA]2 [DG]2 | [Gc]2 [Gd]2 [Ge]2 [Ec]2 | %16
w: ||||
 d-[Fd] [Ec]2 [GB]2 [FA]2 | [EG]2 [DF]2 E4 | [EG]2 [Gc]2 [FA]2 [Ad]2 | [Gc]2 [FB]2 [Ec]4 |] %20
w: ||||
V:2
 x8 | x8 | [Ec]2 G-[GB] [FA]2 [Ad]2 | x8 | x8 | x8 | [Ec]2 G-[GB] [FA]2 [Ad]2 | x8 | x8 | %9
 CB, [CE]2 [CE]2 [B,D]2 | x8 | x8 | x8 | x8 | x8 | x8 | .G2 z2 z4 | x8 | x8 | x8 |] %20
V:3
 C2 C2 C2 B,2 | C2 B,2 C2 C2 | C2 C2 C2 F2 | E2 D2 C4 | C2 C2 C2 B,2 | C2 B,2 C2 C2 | C2 C2 C2 F2 | %7
 E2 D2 C4 | G,2 G,2 F,2 G,2 | A,G, G,2 G,2 G,2 | G,2 G,2 A,2[K:treble] E2 | D2 C2 B,4 | %12
 B,2 C2[K:bass] B,2 B,2 | C2 C2 B,4 | C2 C2 C2 B,2 | C2 B,2 C2 C2 | B,2 C2 ED C2 | C2 CB, C4 | %18
 C2 C2 C2 F2 | E2 D2 C4 |] %20
V:4
 C,2 C,2 F,2 G,2 | A,2 G,2 C,2 C,2 | C,2 E,2 F,2 F,2 | G,2 G,2 C,4 | C,2 C,2 F,2 G,2 | %5
 A,2 G,2 C,2 C,2 | C,2 E,2 F,2 F,2 | G,2 G,2 C,4 | B,,2 C,2 z2 E,2 | D,2 E,C, G,,2 G,,2 | %10
 G,,2 B,,2 D,2 D,2 | D,2 D,2 G,4 | G,F, E,2 D,2 G,2 | C,2 E,2 G,4 | C,2 C,2 F,2 F,2 | %15
 E,2 D,2 C,2 C,2 | G,2 A,2 E,2 F,2 | G,2 G,2 C,4 | C,2 E,2 F,2 D,2 | G,2 G,2 C,4 |] %20

